X:1
T:Rimsky-Korsakov Harmonic Exercises, Auxiliary Tones
T:Rimsky-Korsakov Harmonic Exercises, Auxiliary Tones
T:"Practical Manual of Harmony" (1885)
%%score { ( 1 2 ) | ( 3 4 ) }
L:1/8
Q:1/4=70
M:2/4
K:C
V:1 treble nm="Piano" snm="Pno."
V:2 treble 
V:3 bass 
V:4 bass 
V:1
"^Examples by Rimsky-Korsakov (\n""^auxiliary tones""^):" (ga !breath!g2) |] %1
[M:4/4] (G4 !breath!c4) |][M:6/8] (d^cd ef!breath!e) |][M:6/4][Q:1/2=60] (c6 !breath!B6) |] %4
[M:4/4] !breath!A8 |] (G2 _A2 !breath!G4) |] %6
"^Possible but not mandatory chromatic changes in auxiliary tones:" c!courtesy!_dcB c4 |] %7
 efe!courtesy!^d e4 |] g!courtesy!_ag^f g4 |] ABA^G A4 |] cdcB c4 |] efe!courtesy!^d !breath!e4 |] %12
[M:2/4][Q:1/4=60]"^The upper auxiliary tone near the seventh of the chord\ndoes not allow for chromatic lowering:\n" f_g !breath!f2 |] %13
"^Lower auxiliary tone around\nthe root of the seventh chord sounds good:\n" (f4 | !breath!=f4) |] %15
[M:4/4]"""^An auxiliary tone near a doubled note is only\npossible if the doubling is at least an octave away.\nFor the doubling third of a chord, stricter rules apply,\nauxiliary tone near to doubling third are only possible in\nsixth chords and at least an octave away.\n""^Bad:""_C:" e2 f2 !breath!e4 |] %16
"""_C:" !breath!e8 |]"""^Not so bad:""_C:" !breath!e8 |]"""_C:" e2 f2 !breath!e4 |] %19
"^Bad cross-relation:" A2 _B2 !breath!A4 |] d2"^Parallel 5th:" e2 !breath!d4 |] %21
[M:6/8] x3[Q:1/8=80]"^Double, triple and quadruple auxiliary tones:" (G2 A | A^GA =G3 | cBc c3 | %24
 GAG B^AB | c3) x3 |] %26
V:2
 (c2 B2) |][M:4/4] (E4 G4) |][M:6/8] G6 |][M:6/4] (E2 ^D2 E2 F2 G2 F2) |][M:4/4] C8 |] (F4 E4) |] %6
 G8 |] c8 |] c8 |] E8 |] A8 |] A8 |][M:2/4] B4 |] (=c4 | B4) |][M:4/4] G8 |] E2 ^D2 E4 |] G8 |] %18
 G8 |] F8 |] A4 G4 |][M:6/8] x3 (E^DE | F3- FEF | EFE FEF | E^DE FEF | E3) x3 |] %26
V:3
 (E2 D2) |][M:4/4] (C2 B,2 C4) |][M:6/8] (B,3 C3) |][M:6/4] G,12 |][M:4/4] E,8 |] (B,4 C4) |] E8 |] %7
 G8 |] E8 |] C8 |] E8 |] C8 |][M:2/4] D4 |] (G4 | G^F G2) |][M:4/4] E8 |] G,8 |] C8 |] C8 |] %19
 C4 =B,4 |] C4 B,4 |][M:6/8] x3 (CB,C | CB,C B,^A,B, | G,_A,G, C3- | CB,C =D^CD | =C3) x3 |] %26
V:4
 (C,2 G,2) |][M:4/4] (C,4 E,4) |][M:6/8] (G,3 C,3) |][M:6/4] (C,6 G,,6) |] %4
[M:4/4] (A,,2 ^G,,2 A,,4) |] (G,4 C,4) |] C,8 |] C,8 |] C,8 |] A,8 |] A,8 |] A,8 |][M:2/4] G,4 |] %13
 (D,^C, D,2 | G,4) |][M:4/4] C,8 |] C,8 |] E,2 ^D,2 E,4 |] E,8 |] F,8 |] F,8 |] %21
[M:6/8] x3 (C,2 A,, | F,3 D,^C,D, | =C,3 =A,,_B,,A,, | G,,^F,,G,, G,,3 | C,3) x3 |] %26

